X:122
M:4/4
L:1/4
K:F
G2 G G | F G B A | !fermata!G2 B2 | c c B c | d2 !fermata!d2 | d d c d | B c (B A) | !fermata!G2 G =F | G (B c) G | (^F G) !fermata!G2 | !sintro!c2 (d c) | B G B A/G/ | (B2 G2) | G4 !eintro!|]
